X:1
T:Title
%%score ( 1 2 ) { 3 | 4 }
L:1/8
M:3/4
K:C
V:1 treble nm="Grand Piano, Staff"
V:2 treble 
V:3 bass nm="Choir Pad, Erschienen Ist"
V:4 bass 
V:1
 [A,D]2 [A,D]2 [A,D]2 | [CA]4 [DB]2 | [Ec]3 [DB] [DA]2 | [B,G]6 | [DA]2 [DB]2 [E^c]2 | %5
w: By~Nikolaus~Herman,~1560 * *|||||
 [Fd]4 [DA]2 | [Ec]2 [EB]4 | [^CA]6 | [DA]2 [Ec]2 [CA]2 | G3 F [CE]2 | [CF]2 [B,D]4 | C6 | %12
w: |||||||
 C2 [DF]2 [EG]2 | [FA]4 [EG]2 | [DF]2 [Cc]4 | [CA]4 [EG]2 | F3 G [^CE]2 | D6- | D2 z2 z2 |] %19
w: |||||||
V:2
 x6 | x6 | x6 | x6 | x6 | x6 | x6 | x6 | x6 | C4 z2 | x6 | x6 | x6 | x6 | x6 | x6 | D4 z2 | x6 | %18
 x6 |] %19
V:3
 F,2 F,2 F,2 | E,4 G,2 | G,4 ^F,2 | G,6 | ^F,2 G,2 G,2 | A,4 F,2 | A,2 A,2 ^G,2 | A,6 | %8
 F,2 G,2 F,2 | G,4 G,2 | A,2 G,4 | E,6 | E,2 F,2 _B,2 | C4 C2 | A,2 G,4 | F,4 C2 | A,3 _B, A,2 | %17
 ^F,6- | F,2 z2 z2 |] %19
V:4
 D,2 D,2 D,2 | A,,4 G,,2 | C,3 G,, D,2 | G,,6 | D,2 z2 E,2 | D,4 D,2 | A,,2 E,4 | A,,6 | %8
 D,2 C,2 z2 | E,3 D, C,2 | F,,2 G,,4 | C,6 | C,2 _B,,2 G,,2 | F,,4 C,2 | D,2 E,4 | z2 z2 C,2 | %16
 D,3 G,, A,,2 | D,6- | D,2 z2 z2 |] %19

